Numix-GalliumOS/22/actions/stock_task-assigned-to.svg

<?xml version="1.0" encoding="UTF-8" standalone="no"?>
<svg
   xmlns:dc="http://purl.org/dc/elements/1.1/"
   xmlns:cc="http://creativecommons.org/ns#"
   xmlns:rdf="http://www.w3.org/1999/02/22-rdf-syntax-ns#"
   xmlns:svg="http://www.w3.org/2000/svg"
   xmlns="http://www.w3.org/2000/svg"
   xmlns:sodipodi="http://sodipodi.sourceforge.net/DTD/sodipodi-0.dtd"
   xmlns:inkscape="http://www.inkscape.org/namespaces/inkscape"
   viewBox="0 0 22 22"
   id="svg2"
   version="1.1"
   inkscape:version="0.91 r13725"
   sodipodi:docname="stock_task-assigned-to.svg"
   width="22"
   height="22">
  <metadata
     id="metadata98">
    <rdf:RDF>
      <cc:Work
         rdf:about="">
        <dc:format>image/svg+xml</dc:format>
        <dc:type
           rdf:resource="http://purl.org/dc/dcmitype/StillImage" />
        <dc:title></dc:title>
      </cc:Work>
    </rdf:RDF>
  </metadata>
  <sodipodi:namedview
     pagecolor="#ffffff"
     bordercolor="#666666"
     borderopacity="1"
     objecttolerance="10"
     gridtolerance="10"
     guidetolerance="10"
     inkscape:pageopacity="0"
     inkscape:pageshadow="2"
     inkscape:window-width="622"
     inkscape:window-height="982"
     id="namedview96"
     showgrid="true"
     inkscape:zoom="9.8333338"
     inkscape:cx="9.5715073"
     inkscape:cy="11.60872"
     inkscape:window-x="8"
     inkscape:window-y="32"
     inkscape:window-maximized="0"
     inkscape:current-layer="svg2"
     inkscape:object-nodes="true"
     inkscape:snap-smooth-nodes="true">
    <inkscape:grid
       type="xygrid"
       id="grid4360" />
  </sodipodi:namedview>
  <defs
     id="defs4">
    <path
       id="SVGCleanerId_0"
       d="m 14,12 20,0 c 1.105,0 2,0.895 2,2 l 0,20 c 0,1.105 -0.895,2 -2,2 l -20,0 c -1.105,0 -2,-0.895 -2,-2 l 0,-20 c 0,-1.105 0.895,-2 2,-2 m 0,0"
       inkscape:connector-curvature="0" />
    <clipPath
       id="clipPath-543229327">
      <g
         transform="translate(0,-1004.3622)"
         id="g3857">
        <path
           inkscape:connector-curvature="0"
           d="m -24,13 c 0,1.105 -0.672,2 -1.5,2 -0.828,0 -1.5,-0.895 -1.5,-2 0,-1.105 0.672,-2 1.5,-2 0.828,0 1.5,0.895 1.5,2 z"
           transform="matrix(15.333333,0,0,11.5,414.99999,878.8622)"
           style="fill:#1890d0"
           id="path3859" />
      </g>
    </clipPath>
  </defs>
  <g
     id="g34"
     transform="translate(0,-26)" />
  <path
     sodipodi:nodetypes="cssssssc"
     id="path3893-5"
     style="fill:#e6b07f;fill-opacity:1;fill-rule:evenodd;stroke:none"
     d="m 17,4 c 1,0 1,0 1,1 l 0,14 c 0,1 0,1 -1,1 L 5,20 C 4,20 4,20 4,19 L 4,5 C 4,4 4,4 5,4"
     inkscape:connector-curvature="0" />
  <path
     sodipodi:nodetypes="cccc"
     id="path3895-6"
     style="fill:#ffffff;fill-opacity:1;fill-rule:nonzero;stroke:none"
     d="m 16,3.9999995 -10,0 L 6,18 16,18"
     inkscape:connector-curvature="0" />
  <path
     sodipodi:nodetypes="cccc"
     id="path3897-4"
     style="fill:#aaaaaa;fill-opacity:1;fill-rule:nonzero;stroke:none"
     d="m 7.0000004,2 0,3.0714283 7.9999996,0 L 15,2"
     inkscape:connector-curvature="0" />
  <path
     style="fill:#868686;fill-opacity:1;fill-rule:nonzero;stroke:none"
     d="M 7 14 L 7 15 L 14 15 L 14 14 L 9 14 L 7 14 z "
     id="path3899-54" />
  <path
     style="fill:#868686;fill-opacity:1;fill-rule:nonzero;stroke:none"
     d="m 7,16 0,1 7,0 0,-1 z"
     id="path3901-2"
     inkscape:connector-curvature="0"
     sodipodi:nodetypes="ccccc" />
  <g
     id="g34-7"
     transform="translate(0,-26)" />
  <path
     style="fill:#868686;fill-opacity:1;fill-rule:nonzero;stroke:none"
     d="M 7 10 L 7 11 L 9 11 L 9 10 L 7 10 z "
     id="path3899-5" />
  <path
     style="fill:#868686;fill-opacity:1;fill-rule:nonzero;stroke:none"
     d="M 7 12 L 7 13 L 9 13 L 9 12 L 7 12 z "
     id="path3901-7-7" />
  <path
     style="fill:#868686;fill-opacity:1;fill-rule:nonzero;stroke:none"
     d="M 7 6 L 7 7 L 14 7 L 14 6 L 7 6 z "
     id="path3899-5-9" />
  <path
     style="fill:#868686;fill-opacity:1;fill-rule:nonzero;stroke:none"
     d="M 7 8 L 7 9 L 9 9 L 9 8 L 7 8 z "
     id="path3901-7-2" />
  <path
     inkscape:connector-curvature="0"
     style="fill:#268bd2;fill-opacity:1"
     d="M 19.999999,10.999999 15,6 l 0,3 -4.999999,0 0,3.999999 4.999999,0 0,3 z"
     id="path4" />
</svg>

<svg xmlns="http://www.w3.org/2000/svg" viewBox="0 0 22 22">
 <path d="m 17,4 c 1,0 1,0 1,1 l 0,14 c 0,1 0,1 -1,1 L 5,20 C 4,20 4,20 4,19 L 4,5 C 4,4 4,4 5,4" style="fill:#e6b07f;fill-opacity:1;stroke:none;fill-rule:evenodd"/>
 <path d="m 16 4 -10 0 l 0 14 10 0" style="fill:#fff;fill-opacity:1;stroke:none;fill-rule:nonzero"/>
 <path d="m 7 2 0 3.071 8 0 l 0 -3.071" style="fill:#aaa;fill-opacity:1;stroke:none;fill-rule:nonzero"/>
 <path d="m 7 14 l 0 1 l 7 0 l 0 -1 l -5 0 l -2 0 z" style="fill:#868686;fill-opacity:1;stroke:none;fill-rule:nonzero"/>
 <path d="m 7 16 0 1 7 0 0 -1 z" style="fill:#868686;fill-opacity:1;stroke:none;fill-rule:nonzero"/>
 <path d="m 7 10 l 0 1 l 2 0 l 0 -1 l -2 0 z" style="fill:#868686;fill-opacity:1;stroke:none;fill-rule:nonzero"/>
 <path d="m 7 12 l 0 1 l 2 0 l 0 -1 l -2 0 z" style="fill:#868686;fill-opacity:1;stroke:none;fill-rule:nonzero"/>
 <path d="m 7 6 l 0 1 l 7 0 l 0 -1 l -7 0 z" style="fill:#868686;fill-opacity:1;stroke:none;fill-rule:nonzero"/>
 <path d="M 7 8 L 7 9 L 9 9 L 9 8 L 7 8 z " style="fill:#868686;fill-opacity:1;stroke:none;fill-rule:nonzero"/>
 <path d="m 20 11 -5 -5 l 0 3 -5 0 0 4 5 0 0 3 z" style="fill:#268bd2;fill-opacity:1"/>
</svg>
